X:527
T: Z LAUTERBACH HAB I MEI STRUMPF VERLOREN
N: Z1207
O: Europa, Mitteleuropa, Tirol
R: Liebes - Lied
M: 2/4
L: 1/16
K: C
 | G,3G,C4 | A,3A,F,4 | G,3G,G,4
F3FE4 | D3DG,4 | G,2G,EC4
G,3G,C4 | A,3A,F,4 | G,3G,G,4
F3FE4 | D3DG,4 | C4z4

